X:1
T:Title
%%score { ( 1 4 ) | ( 2 3 ) }
L:1/8
M:4/4
K:Db
V:1 treble nm="Grand Piano"
V:4 treble 
V:2 bass 
V:3 bass 
V:1
 z4 z2[Q:1/4=100] [DF][EG] | [FA]2 [FA]2 [FA]2 [Fd]d | cBBB B2 B2 | A2 d2 ddcd | e6 FG | %5
 [FA]2 [FA]2 [FA]2 [Fd][Fd] | cBBB B2 B2 | A2 d2 cdec |[M:3/4] [DFd]6 |[M:1/4] FG |[M:4/4] A6 z2 | %11
 A6 z2 | c6 z2 |[M:3/4] d6 |[M:1/4] FG |[M:4/4] A6 z2 | B6 z2 | c6 z2 |[M:3/4] d6 |] %19
V:2
 z4 z2 [D,A,]2 | [D,D]2 [D,D]2 [D,D]2 z[K:treble] F | [G,DG]2 [G,DG][G,DG] [G,DG]2 [G,DG]2 | %3
 [A,DF]2 [A,DF]2 [A,DF][A,DF][A,EG][A,DF] | [A,CG]6[K:bass] DE | [D,D]2 [D,D]2 [D,D]2 [D,D][D,D] | %6
 [G,DG]2 [G,DG][G,DG] [G,DG]2 [G,DG]2 | [A,DF]2 [A,DF]2 [A,EG][A,DF][A,CG][A,EG] | %8
[M:3/4][K:bass] D,6 |[M:1/4] D[K:treble]E |[M:4/4] F6[K:bass][K:treble] z2 | %11
 F6[K:bass][K:treble] z2 | E6[K:bass][K:treble] z2 |[M:3/4] F6[K:bass] |[M:1/4][K:treble] DE | %15
[M:4/4] F6[K:bass][K:treble] z2 | G6[K:bass][K:treble] z2 | G6 [A,EG][A,EG] | %18
[M:3/4][K:bass] [D,D]2 [D,B,][D,B,] [D,A,]2 |] %19
V:3
 x8 | z4 z2 [D,D]2[K:treble] | x8 | x8 | z4 z2[K:bass] [D,A,]2 | x8 | x8 | x8 |[M:3/4][K:bass] x6 | %9
[M:1/4] x[K:treble] x |[M:4/4] z2[K:bass] D,2 D,2[K:treble] G2 | z2[K:bass] D,2 D,2[K:treble] F2 | %12
 z2[K:bass] A,,2 A,,2[K:treble] FG |[M:3/4] z2[K:bass] D,2 D,2 |[M:1/4][K:treble] x2 | %15
[M:4/4] z2[K:bass] D,2 D,2[K:treble] F2 | z2[K:bass] G,2 G,2[K:treble] GG | x8 | %18
[M:3/4][K:bass] x6 |] %19
V:4
 x8 | x8 | x8 | x8 | x8 | x8 | x8 | x8 |[M:3/4] x6 |[M:1/4] x2 |[M:4/4] z2 D2 D2 B2 | %11
 z2 A,2 A,2 d2 | z2 A,2 A,2 de |[M:3/4] z2 A,2 A,2 |[M:1/4] x2 |[M:4/4] z2 D2 D2 d2 | z2 D2 D2 ed | %17
 z2 A,2 A,2 Bc |[M:3/4] F2 GG F2 |] %19

